X:1
T:Title
%%score ( 1 2 ) 3
L:1/8
Q:1/4=108
M:4/4
K:F
V:1 treble nm="Grand Piano, Soprano"
V:2 treble 
V:3 bass nm="Choir Pad, Chipping Ongar, 88.88.86.86"
V:1
 [DF]2 [DF]2 [B,D][C_E] [DF]2 | [DB]2 [Fd]2 [_Ec]2 [DB]2 | [Fd]2 [Fc]2 [FA]2 [EB]2 | %3
w: By~Bowness~Briggs,~before~1917 * * * *|||
 [EG]2 [Fc]2 [Ec]2 F2 | z4 .G2 z2 | [Fc]2 [Fd]2 [EB]2 [Fc]2 | [Fc]2 [Fd]2 [Be]2 [Af]2 | %7
w: ||||
 [FA]2 [EB]2 [EG]2 [CF]2 | F2 [Fc]6 | F2 [Fd]6 | [FB]2 [F_e]4 [Fd]2- | [Fd]2 [Fc]6 | %12
w: |||||
 [Fc]2 [Fd]2 [Bf]2 [Bf]2 | [Be]2 [Af]6 | [Fc]2 [Fd]2 [Fd]2 [GB]2 | [GB]2 [F_e]2 [Fe]2 [Fc]2 | %16
w: ||||
 [Fd]2 [GB]2 [_EG]2 [Ec]2 | [_EA]2 [DB]6- | [DB]2 z2 z4 |] %19
w: |||
V:2
 x8 | x8 | x8 | x8 | [DF]2 [DF]2 _E-[EA] [FB]2 | x8 | x8 | x8 | x8 | x8 | x8 | x8 | x8 | x8 | x8 | %15
 x8 | x8 | x8 | x8 |] %19
V:3
 [B,,B,]2 [B,,B,]2 [B,,F,]2 [B,,B,]2 | [B,,B,]2 [F,B,]2 [F,A,]2 [B,,B,]2 | %2
 B,2 [A,C]2 [F,C]2 [G,C]2 | [B,C]2 [A,C]2 [C,B,]2 [F,A,]2 | [B,,B,]2 [B,,B,]2 [B,,B,]2 [D,B,]2 | %5
 [F,A,]2 B,2 [C,G,]2 [F,A,]2 | [F,A,]2 B,2 [G,C]2 [F,C]2 | [C,C]2 [C,G,]2 [C,B,]2 [F,A,]2 | %8
 F,2 [F,_E]6 | F,2 [F,B,]6 | [F,D]2 [F,C]4 [F,B,]2- | [F,B,]2 [F,A,]6 | [F,A,]2 A,2 [G,C]2 [G,C]2 | %13
 [C,C]2 [F,C]6 | [F,A,]2 [B,,B,]2 [B,,B,]2 [_E,B,]2 | [_E,B,]2 [F,A,]2 [F,C]2 [F,A,]2 | %16
 B,2 [_E,B,]2 [E,B,]2 [F,A,]2 | [F,C]2 [B,,B,]6- | [B,,B,]2 z2 z4 |] %19

